X: 746
T: Ferahfezâ Peşrev
C: Zeki Mehmed Ağa
O: Turkey
F: http://compmusic.upf.edu/node/140
N: ferahfeza--pesrev--hafif--son_pesrev--zeki_mehmet_aga
N: makam= ferahfeza
N: form= pesrev
N: usul= hafif = 32/4
M: 32/4
L: 1/16
K: C _B   
Q: 1/4=120
%%MIDI tuningsystem comma53
.d4 .^c4 .d6 e2  | z2 f e f2 g2 a2 g2 f2 e2  | \
w:   |   | 
d2 ^c2 d4 f4 e d c2  | d6 .d .d d8  | 
w:   |   | 
g f e f e2 f2 g4 a4  | z2 a a a2 b2 c'3 b a4  | \
w:   |   | 
g3 b a2 g2 f2 e2 d2 ^c2  | 
w:   | 
d6 .d .d d8  | z2 A _1/4B A2 B2 c d c2 d4  | \
w:   |   | 
z2 e f e2 a2 g2 f2 e2 d2  | 
w:   | 
^c3 d e2 c2 d4 e f g a  | g f e2 z2 f e f4 e4  | \
w:   |   | 
d6 _7/8e d d2 c B A2 G2  | 
w:   | 
c4-c d c B A4 B A G F  | G3 B A2 G2 F2 E2 D2 ^C2  | \
w:   |   | 
D6 .D .D D8  | 
w:   | 
{e}f4 e2 d e c4 a3 g  | g f e4 f f f4 z4  | \
w:   |   | 
g2 e4 f2 e f e d d e d c  | 
w:   | 
c _1/4B c d e d c B {A}c3 B A4  | \
w:   | 
z2 d d d2 e e e2 d e d2 c d  | 
w:   | 
c2 d4 (3ede d2 e4 z2  | f e f g a g f e d3 e f2 g a  | 
w:   |   | 
g f e4 .f .f f8  | z2 A _1/4B A2 B2 c d c2 d4  | \
w:   |   | 
z2 e f e2 a2 g2 f2 e2 d2  | 
w:   | 
^c3 d e2 c2 d4 e f g a  | g f e2 z2 f e f4 e4  | \
w:   |   | 
d6 _7/8e d d2 c B A2 G2  | 
w:   | 
c4-c d c B A4 B A G F  | G3 B A2 G2 F2 E2 D2 ^C2  | \
w:   |   | 
D6 .D .D D8  | 
w:   | 
|


